static/fa/svgs/solid/suitcase.svg

<svg xmlns="http://www.w3.org/2000/svg" viewBox="0 0 512 512"><!--! Font Awesome Free 6.1.1 by @fontawesome - https://fontawesome.com License - https://fontawesome.com/license/free (Icons: CC BY 4.0, Fonts: SIL OFL 1.1, Code: MIT License) Copyright 2022 Fonticons, Inc.--><path d="M0 144v288c0 25.6 22.41 48 48 48h48V96H48c-25.59 0-48 22.4-48 48zM336 0H176c-25.6 0-48 22.41-48 48v432h256V48c0-25.59-22.4-48-48-48zm0 96H176V48h160v48zm128 0h-48v384h48c25.59 0 48-22.41 48-48V144c0-25.6-22.4-48-48-48z"/></svg>

<svg xmlns="http://www.w3.org/2000/svg" viewBox="0 0 512 512"><!--! Font Awesome Free 6.1.1 by @fontawesome - https://fontawesome.com License - https://fontawesome.com/license/free (Icons: CC BY 4.0, Fonts: SIL OFL 1.1, Code: MIT License) Copyright 2022 Fonticons, Inc. --><path d="M0 144v288C0 457.6 22.41 480 48 480H96V96H48C22.41 96 0 118.4 0 144zM336 0h-160C150.4 0 128 22.41 128 48V480h256V48C384 22.41 361.6 0 336 0zM336 96h-160V48h160V96zM464 96H416v384h48c25.59 0 48-22.41 48-48v-288C512 118.4 489.6 96 464 96z"/></svg>
